X:1
T:Mount Vernon, 87.87
T:Mount Vernon, 87.87
T:Lowell Mason, 1833
T:Public Domain Courtesy of the Cyber Hymnal™
C:Lowell Mason, 1833
Z:Public Domain
Z:Courtesy of the Cyber Hymnal™
%%score ( 1 2 ) ( 3 4 )
L:1/8
Q:1/4=108
M:4/4
K:C
V:1 treble 
V:2 treble 
V:3 bass 
V:4 bass 
V:1
 [CE]2 [CE]2 [EG]2 [CE]2 | [CF]2 [FA]2 [FA]2 [EG]2 | [Ec]2 [CE]2 [CE]2 [B,D][CE] | %3
 [DF]2 [CE]2 [B,D]4 | [EG]2 [EG]2 [Ge]2 [Ec]2 | [FA]2 [Ac]2 [FA]2 [EG]2 | [EG]2 [Ge]2 [Fd]2 [Ec]2 | %7
 [FA]2 G2 [CE]4 |] %8
V:2
 x8 | x8 | x8 | x8 | x8 | x8 | x8 | x2 (DB,) x4 |] %8
V:3
 [C,G,]2 [C,G,]2 [C,C]2 [C,G,]2 | [C,A,]2 [C,C]2 [C,C]2 [C,C]2 | [C,G,]2 [E,G,]2 G,2 G,2 | %3
 G,2 G,2 G,4 | [C,G,]2 [C,C]2 [C,C]2 [C,C]2 | [F,C]2 [F,C]2 [C,C]2 [C,C]2 | %6
 [C,C]2 [C,G,]2 [G,,B,]2 [A,,C]2 | [F,,C]2 (B,G,) [C,G,]4 |] %8
V:4
 x8 | x8 | x4 G,2 G,2 | G,2 G,2 G,4 | x8 | x8 | x8 | x2 G,,2 x4 |] %8

